src/assets/mimic-logo-mobile.svg

<svg fill="none" height="120" viewBox="0 0 119 120" width="119" xmlns="http://www.w3.org/2000/svg"><g fill="#fff"><path d="m109.494 95.2164v9.5206h-11.9126c-8.3299-.006-16.4555-2.58-23.2699-7.3708-6.8144-4.7907-11.9865-11.5655-14.8119-19.4016-2.8271 7.8341-7.9999 14.6066-14.8142 19.3952-6.8143 4.7882-14.9389 7.3612-23.2675 7.3662h-11.91302v-9.5096h11.90592c7.7957.0012 15.3046-2.9408 21.0245-8.2376 5.7199-5.2969 9.2292-12.5579 9.8258-20.3309h14.4628c.5966 7.773 4.1059 15.034 9.8258 20.3309 5.7199 5.2968 13.2287 8.2388 21.0245 8.2376z"/><path d="m119 64.2657c.002 1.4501-.143 2.8966-.432 4.3174-1.024 4.9467-3.762 9.3727-7.732 12.4965-3.969 3.1239-8.915 4.7448-13.9639 4.5765-5.0486-.1683-9.8754-2.115-13.6283-5.4963-3.7528-3.3813-6.1904-7.9798-6.8822-12.9837-.5975-4.2922.1275-8.6646 2.0784-12.5344.5398-1.0816 1.1731-2.114 1.8926-3.0853.0679-.0893.1429-.1822.2179-.2857 3.339-4.5035 5.1373-9.9635 5.128-15.5698 0-6.9432-2.7582-13.6021-7.6678-18.5116-4.9096-4.9096-11.5684-7.66781-18.5116-7.66781s-13.602 2.75821-18.5116 7.66781c-4.9096 4.9095-7.6678 11.5684-7.6678 18.5116-.014 5.6136 1.7846 11.0818 5.128 15.5912.075.1036.15.1964.2179.2857.7195.9714 1.3528 2.0038 1.8926 3.0854 1.3739 2.7266 2.1491 5.7152 2.2738 8.7658.1248 3.0506-.4039 6.0926-1.5505 8.9223-1.1467 2.8296-2.8848 5.3815-5.098 7.4847s-4.8503 3.7092-7.7346 4.7102c-2.8844 1.0011-5.9494 1.3742-8.9896 1.0943-3.0403-.2799-5.9856-1.2064-8.6387-2.7172-2.65312-1.5109-4.95268-3.5713-6.74464-6.0433-1.79196-2.4719-3.03494-5.2983-3.645652-8.2897-.706462-3.4774-.541044-7.0755.481489-10.4734 1.022533-3.3978 2.870373-6.4897 5.378613-8.9996l2.78542 2.789 3.92817 3.946c-1.6101 1.611-2.724 3.6502-3.20946 5.8755-.48543 2.2253-.32198 4.5432.47096 6.6783.7929 2.1352 2.1819 3.9979 4.0022 5.3669 1.8202 1.3691 3.9951 2.187 6.2665 2.3565 2.2713.1696 4.5435-.3163 6.5468-1.4 2.0034-1.0836 3.6536-2.7195 4.7547-4.7132 1.1011-1.9938 1.6069-4.2617 1.4572-6.5344-.1496-2.2727-.9484-4.4547-2.3015-6.2869-.0429-.0499-.075-.0964-.1107-.1428-3.0136-4.0317-5.1375-8.6568-6.2315-13.57-.0321-.1321-.0571-.2714-.0893-.4071-.5093-2.4239-.7678-4.8938-.7713-7.3707 0-.7665.025-1.5284.075-2.2854.1979-3.2004.831-6.3589 1.8819-9.3883 2.4286-7.0168 6.984-13.1021 13.0323-17.40914 6.0484-4.30702 13.289-6.62156 20.7142-6.62156 7.4251 0 14.6657 2.31454 20.7141 6.62156 6.0483 4.30704 10.6037 10.39234 13.0323 17.40914 1.0537 3.0349 1.6881 6.1995 1.8855 9.4061.05.7571.075 1.5189.075 2.2855-.001 2.4717-.2559 4.9368-.7606 7.3564-.0322.1357-.0572.2749-.0893.4071-1.094 4.9131-3.2179 9.5383-6.2315 13.57-.0357.0464-.0678.0928-.1107.1428-1.3543 1.8325-2.1542 4.0153-2.3045 6.289s.3552 4.5427 1.4565 6.5376c1.1012 1.9949 2.752 3.6317 4.7562 4.716 2.0041 1.0843 4.2774 1.5705 6.5497 1.4009s4.4483-.988 6.2693-2.3578 3.21-3.2336 4.003-5.3699c.793-2.1362.956-4.4552.47-6.6814s-1.601-4.266-3.213-5.8771l3.946-3.946 2.786-2.789c1.991 1.9867 3.571 4.3473 4.648 6.9464 1.077 2.599 1.629 5.3852 1.626 8.1984z"/><path d="m38.208 119.006c.5917-5.232 3.0895-10.064 7.0165-13.572 3.9271-3.508 9.0084-5.4467 14.2741-5.4467s10.3471 1.9387 14.2741 5.4467c3.9271 3.508 6.4248 8.34 7.0165 13.572h-9.6418c-.551-2.686-2.0125-5.1-4.1375-6.834-2.125-1.733-4.7833-2.68-7.5256-2.68s-5.4005.947-7.5255 2.68c-2.125 1.734-3.5865 4.148-4.1375 6.834z"/><path d="m54.7397 52.3641c1.3135 0 2.3783-1.0648 2.3783-2.3784 0-1.3135-1.0648-2.3783-2.3783-2.3783-1.3136 0-2.3784 1.0648-2.3784 2.3783 0 1.3136 1.0648 2.3784 2.3784 2.3784z"/><path d="m64.2582 52.3641c1.3135 0 2.3783-1.0648 2.3783-2.3784 0-1.3135-1.0648-2.3783-2.3783-2.3783s-2.3783 1.0648-2.3783 2.3783c0 1.3136 1.0648 2.3784 2.3783 2.3784z"/></g></svg>

<svg width="119" height="120" viewBox="0 0 119 120" fill="none" xmlns="http://www.w3.org/2000/svg">
<path d="M109.494 95.2164V104.737H97.5814C89.2515 104.731 81.1259 102.157 74.3115 97.3662C67.4971 92.5755 62.325 85.8007 59.4996 77.9646C56.6725 85.7987 51.4997 92.5712 44.6854 97.3598C37.8711 102.148 29.7465 104.721 21.4179 104.726H9.50488V95.2164H21.4108C29.2065 95.2176 36.7154 92.2756 42.4353 86.9788C48.1552 81.6819 51.6645 74.4209 52.2611 66.6479H66.7239C67.3205 74.4209 70.8298 81.6819 76.5497 86.9788C82.2696 92.2756 89.7784 95.2176 97.5742 95.2164H109.494Z" fill="white"/>
<path d="M119 64.2657C119.002 65.7158 118.857 67.1623 118.568 68.5831C117.544 73.5298 114.806 77.9558 110.836 81.0796C106.867 84.2035 101.921 85.8244 96.8721 85.6561C91.8235 85.4878 86.9967 83.5411 83.2438 80.1598C79.491 76.7785 77.0534 72.18 76.3616 67.1761C75.7641 62.8839 76.4891 58.5115 78.44 54.6417C78.9798 53.5601 79.6131 52.5277 80.3326 51.5564C80.4005 51.4671 80.4755 51.3742 80.5505 51.2707C83.8895 46.7672 85.6878 41.3072 85.6785 35.7009C85.6785 28.7577 82.9203 22.0988 78.0107 17.1893C73.1011 12.2797 66.4423 9.52149 59.4991 9.52149C52.5559 9.52149 45.8971 12.2797 40.9875 17.1893C36.0779 22.0988 33.3197 28.7577 33.3197 35.7009C33.3057 41.3145 35.1043 46.7827 38.4477 51.2921C38.5227 51.3957 38.5977 51.4885 38.6656 51.5778C39.3851 52.5492 40.0184 53.5816 40.5582 54.6632C41.9321 57.3898 42.7073 60.3784 42.832 63.429C42.9568 66.4796 42.4281 69.5216 41.2815 72.3513C40.1348 75.1809 38.3967 77.7328 36.1835 79.836C33.9703 81.9392 31.3332 83.5452 28.4489 84.5462C25.5645 85.5473 22.4995 85.9204 19.4593 85.6405C16.419 85.3606 13.4737 84.4341 10.8206 82.9233C8.16748 81.4124 5.86792 79.352 4.07596 76.88C2.284 74.4081 1.04102 71.5817 0.430308 68.5903C-0.276154 65.1129 -0.110736 61.5148 0.911797 58.1169C1.93433 54.7191 3.78217 51.6272 6.29041 49.1173L9.07583 51.9063L13.004 55.8523C11.3939 57.4633 10.28 59.5025 9.79454 61.7278C9.30911 63.9531 9.47256 66.271 10.2655 68.4061C11.0584 70.5413 12.4474 72.404 14.2677 73.773C16.0879 75.1421 18.2628 75.96 20.5342 76.1295C22.8055 76.2991 25.0777 75.8132 27.081 74.7295C29.0844 73.6459 30.7346 72.01 31.8357 70.0163C32.9368 68.0225 33.4426 65.7546 33.2929 63.4819C33.1433 61.2092 32.3445 59.0272 30.9914 57.195C30.9485 57.1451 30.9164 57.0986 30.8807 57.0522C27.8671 53.0205 25.7432 48.3954 24.6492 43.4822C24.6171 43.3501 24.5921 43.2108 24.5599 43.0751C24.0506 40.6512 23.7921 38.1813 23.7886 35.7044C23.7886 34.9379 23.8136 34.176 23.8636 33.419C24.0615 30.2186 24.6946 27.0601 25.7455 24.0307C28.1741 17.0139 32.7295 10.9286 38.7778 6.62156C44.8262 2.31454 52.0668 0 59.492 0C66.9171 0 74.1577 2.31454 80.2061 6.62156C86.2544 10.9286 90.8098 17.0139 93.2384 24.0307C94.2921 27.0656 94.9265 30.2302 95.1239 33.4368C95.1739 34.1939 95.1989 34.9557 95.1989 35.7223C95.1979 38.194 94.943 40.6591 94.4383 43.0787C94.4061 43.2144 94.3811 43.3536 94.349 43.4858C93.255 48.3989 91.1311 53.0241 88.1175 57.0558C88.0818 57.1022 88.0497 57.1486 88.0068 57.1986C86.6525 59.0311 85.8526 61.2139 85.7023 63.4876C85.552 65.7613 86.0575 68.0303 87.1588 70.0252C88.26 72.0201 89.9108 73.6569 91.915 74.7412C93.9191 75.8255 96.1924 76.3117 98.4647 76.1421C100.737 75.9725 102.913 75.1541 104.734 73.7843C106.555 72.4145 107.944 70.5507 108.737 68.4144C109.53 66.2782 109.693 63.9592 109.207 61.733C108.721 59.5068 107.606 57.467 105.994 55.8559L109.94 51.9099L112.726 49.1209C114.717 51.1076 116.297 53.4682 117.374 56.0673C118.451 58.6663 119.003 61.4525 119 64.2657Z" fill="white"/>
<path d="M38.208 119.006C38.7997 113.774 41.2975 108.942 45.2245 105.434C49.1516 101.926 54.2329 99.9873 59.4986 99.9873C64.7643 99.9873 69.8457 101.926 73.7727 105.434C77.6998 108.942 80.1975 113.774 80.7892 119.006H71.1474C70.5964 116.32 69.1349 113.906 67.0099 112.172C64.8849 110.439 62.2266 109.492 59.4843 109.492C56.742 109.492 54.0838 110.439 51.9588 112.172C49.8338 113.906 48.3723 116.32 47.8213 119.006H38.208Z" fill="white"/>
<path d="M54.7397 52.3641C56.0532 52.3641 57.118 51.2993 57.118 49.9857C57.118 48.6722 56.0532 47.6074 54.7397 47.6074C53.4261 47.6074 52.3613 48.6722 52.3613 49.9857C52.3613 51.2993 53.4261 52.3641 54.7397 52.3641Z" fill="white"/>
<path d="M64.2582 52.3641C65.5717 52.3641 66.6365 51.2993 66.6365 49.9857C66.6365 48.6722 65.5717 47.6074 64.2582 47.6074C62.9447 47.6074 61.8799 48.6722 61.8799 49.9857C61.8799 51.2993 62.9447 52.3641 64.2582 52.3641Z" fill="white"/>
</svg>
